static/images/editor2.svg

<svg height="86" viewBox="0 0 86 86" width="86" xmlns="http://www.w3.org/2000/svg"><g fill="none" fill-rule="evenodd"><circle cx="43" cy="43" fill="#02afde" r="43"/><path d="m48.1093925 28.4045343c.180973.0576566.3159034.1716289.4070294.3392352.0901668.1676063.1074328.3456043.0514782.5356698l-7.7725672 28.2061344c-.0562743.1900655-.1637071.3315253-.3235772.4257201-.1598702.0955356-.3232575.1139723-.4895224.0549748l-1.2927101-.3717508c-.180973-.0576566-.3159034-.170288-.4057505-.3378944-.0901667-.1676063-.1074327-.3469451-.0524374-.5356698l7.7735265-28.2061343c.0549953-.1900656.163707-.3328662.3235772-.427061.1585912-.0941947.3222982-.1126314.4895224-.0549749zm-13.1093925 5.3420489c0 .1830523-.0680129.344474-.2065693.4842653l-8.1023884 8.2689901 8.1023884 8.2706043c.1385564.1397912.2065693.301213.2065693.4842652 0 .1814381-.0680129.3428598-.2065693.4842653l-1.0306322 1.0505326c-.1369747.1410827-.2951442.210494-.4745083.210494-.1790478 0-.3359519-.0694113-.4745084-.210494l-9.6075288-9.8054022c-.1369748-.1394684-.206253-.3008901-.206253-.4842652 0-.1814381.0692782-.3428598.206253-.4842652l9.6075288-9.8050794c.1385565-.1397913.2967259-.210494.4745084-.210494.1793641 0 .3375336.0707027.4745083.210494l1.0306322 1.051824c.1385564.1414055.2065693.3028272.2065693.4842652zm27.7949854 8.2691441c.1373092.1401163.2050146.3015405.2050146.4842727 0 .1830551-.0677054.3444793-.2050146.4842727l-9.6100609 9.805553c-.1373092.1410847-.2954995.2101743-.4733054.2101743-.1790714 0-.3375781-.0690896-.4745709-.2101743l-1.030768-1.0505489c-.1382584-.1414076-.2062802-.3028318-.2062802-.4842726 0-.1830551.0680218-.3444793.2062802-.4842727l8.1034564-8.2707315-8.1034564-8.2691172c-.1382584-.1397934-.2062802-.3012176-.2062802-.4842727 0-.1827322.0680218-.3441565.2062802-.4842727l1.030768-1.0518402c.1369928-.1397934.2954995-.2104972.4745709-.2104972.1778059 0 .3359962.0707038.4733054.2104972z" fill="#fff"/></g></svg>

<?xml version="1.0" encoding="UTF-8"?>
<svg width="86px" height="86px" viewBox="0 0 86 86" version="1.1" xmlns="http://www.w3.org/2000/svg" xmlns:xlink="http://www.w3.org/1999/xlink">
    <!-- Generator: Sketch 46.2 (44496) - http://www.bohemiancoding.com/sketch -->
    <title>ic/editor2</title>
    <desc>Created with Sketch.</desc>
    <defs></defs>
    <g id="Page-1" stroke="none" stroke-width="1" fill="none" fill-rule="evenodd">
        <g id="Temp-Screen" transform="translate(-494.000000, -2608.000000)">
            <g id="3-copy" transform="translate(494.000000, 2608.000000)">
                <g id="ic/editor2">
                    <circle id="Oval-4-Copy-2" fill="#02AFDE" cx="43" cy="43" r="43"></circle>
                    <path d="M48.1093925,28.4045343 C48.2903655,28.4621909 48.4252959,28.5761632 48.5164219,28.7437695 C48.6065887,28.9113758 48.6238547,29.0893738 48.5679001,29.2794393 L40.7953329,57.4855737 C40.7390586,57.6756392 40.6316258,57.817099 40.4717557,57.9112938 C40.3118855,58.0068294 40.1484982,58.0252661 39.9822333,57.9662686 L38.6895232,57.5945178 C38.5085502,57.5368612 38.3736198,57.4242298 38.2837727,57.2566234 C38.193606,57.0890171 38.17634,56.9096783 38.2313353,56.7209536 L46.0048618,28.5148193 C46.0598571,28.3247537 46.1685688,28.1819531 46.328439,28.0877583 C46.4870302,27.9935636 46.6507372,27.9751269 46.8179614,28.0327834 L48.1093925,28.4045343 Z M35,33.7465832 C35,33.9296355 34.9319871,34.0910572 34.7934307,34.2308485 L26.6910423,42.4998386 L34.7934307,50.7704429 C34.9319871,50.9102341 35,51.0716559 35,51.2547081 C35,51.4361462 34.9319871,51.5975679 34.7934307,51.7389734 L33.7627985,52.789506 C33.6258238,52.9305887 33.4676543,53 33.2882902,53 C33.1092424,53 32.9523383,52.9305887 32.8137818,52.789506 L23.206253,42.9841038 C23.0692782,42.8446354 23,42.6832137 23,42.4998386 C23,42.3184005 23.0692782,42.1569788 23.206253,42.0155734 L32.8137818,32.210494 C32.9523383,32.0707027 33.1105077,32 33.2882902,32 C33.4676543,32 33.6258238,32.0707027 33.7627985,32.210494 L34.7934307,33.262318 C34.9319871,33.4037235 35,33.5651452 35,33.7465832 Z M62.7949854,42.0157273 C62.9322946,42.1558436 63,42.3172678 63,42.5 C63,42.6830551 62.9322946,42.8444793 62.7949854,42.9842727 L53.1849245,52.7898257 C53.0476153,52.9309104 52.889425,53 52.7116191,53 C52.5325477,53 52.374041,52.9309104 52.2370482,52.7898257 L51.2062802,51.7392768 C51.0680218,51.5978692 51,51.436445 51,51.2550042 C51,51.0719491 51.0680218,50.9105249 51.2062802,50.7707315 L59.3097366,42.5 L51.2062802,34.2308828 C51.0680218,34.0910894 51,33.9296652 51,33.7466101 C51,33.5638779 51.0680218,33.4024536 51.2062802,33.2623374 L52.2370482,32.2104972 C52.374041,32.0707038 52.5325477,32 52.7116191,32 C52.889425,32 53.0476153,32.0707038 53.1849245,32.2104972 L62.7949854,42.0157273 Z" id="Combined-Shape" fill="#FFFFFF"></path>
                </g>
            </g>
        </g>
    </g>
</svg>
